assets/sonr-icons/coins-stack.svg

<svg xmlns="http://www.w3.org/2000/svg" width="24" height="24" fill="none" viewBox="0 0 24 24"><path fill="#000" d="M7.48302 18.01H7.00102V17.68H7.50102L7.48302 18.01ZM7.48302 18.01L7.47402 18.179C7.31602 18.171 7.15902 18.158 7.00202 18.142L7.48302 18.01ZM7.50102 17.68L7.48302 18.01H7.50002L7.50102 17.68ZM7.50102 17.68C6.08402 17.604 4.71102 17.183 3.50002 16.455L7.81802 19.445C7.60602 18.999 7.49702 18.509 7.50002 18.01L7.50102 17.68ZM7.00202 18.142C5.77102 18.012 4.57802 17.634 3.49902 17.033C3.50902 17.661 3.93002 18.215 4.79002 18.662C5.44802 19.004 6.30302 19.246 7.24602 19.379C7.09702 18.985 7.01402 18.567 7.00202 18.142ZM3.50002 13.296C4.57702 13.9 5.76802 14.277 7.00002 14.402V15.605C6.05502 15.448 5.21702 15.181 4.59602 14.815C3.86802 14.387 3.51102 13.875 3.50002 13.296ZM3.51602 9.745C5.15202 10.634 7.00202 11.066 8.87102 10.987C8.49802 11.274 8.15502 11.601 7.84702 11.962C6.65702 11.861 5.56502 11.592 4.77002 11.174C4.01202 10.776 3.60102 10.292 3.51602 9.745ZM3.50002 5.99C3.50002 5.294 4.01802 4.676 5.07802 4.206C6.12102 3.744 7.54602 3.5 9.00002 3.5C10.454 3.5 11.88 3.744 12.923 4.206C13.983 4.676 14.5 5.294 14.5 5.99C14.5 6.697 13.981 7.315 12.924 7.781C11.882 8.241 10.456 8.48 9.00102 8.48C7.54602 8.48 6.12002 8.241 5.07802 7.781C4.02002 7.315 3.50202 6.696 3.50202 5.99H3.50002ZM20.5 17.933V18.01C20.5 18.706 19.982 19.324 18.923 19.794C17.88 20.256 16.455 20.5 15 20.5C13.545 20.5 12.12 20.256 11.078 19.794C10.018 19.324 9.50102 18.706 9.50102 18.01V17.933C11.169 18.877 13.074 19.34 15.001 19.261C16.929 19.34 18.832 18.878 20.5 17.933ZM9.50002 14.27C9.50002 13.737 9.94802 13.119 10.982 12.603C11.986 12.103 13.406 11.779 15 11.779C16.594 11.779 18.015 12.103 19.018 12.603C20.052 13.118 20.5 13.737 20.5 14.27C20.5 14.803 20.052 15.421 19.018 15.937C18.015 16.437 16.594 16.76 15 16.76C13.406 16.76 11.985 16.436 10.982 15.937C9.94802 15.422 9.50002 14.803 9.50002 14.27Z"/><path stroke="#000" stroke-width="1" d="M7.48302 18.01H7.00102V17.68H7.50102M7.48302 18.01H7.50002M7.48302 18.01L7.47402 18.179C7.31602 18.171 7.15902 18.158 7.00202 18.142M7.48302 18.01L7.00202 18.142M7.48302 18.01L7.50102 17.68M7.50102 17.68L7.50002 18.01M7.50102 17.68C6.08402 17.604 4.71102 17.183 3.50002 16.455L7.81802 19.445C7.60602 18.999 7.49702 18.509 7.50002 18.01M7.00202 18.142C5.77102 18.012 4.57802 17.634 3.49902 17.033C3.50902 17.661 3.93002 18.215 4.79002 18.662C5.44802 19.004 6.30302 19.246 7.24602 19.379C7.09702 18.985 7.01402 18.567 7.00202 18.142ZM3.50002 13.296C4.57702 13.9 5.76802 14.277 7.00002 14.402V15.605C6.05502 15.448 5.21702 15.181 4.59602 14.815C3.86802 14.387 3.51102 13.875 3.50002 13.296ZM3.51602 9.745C5.15202 10.634 7.00202 11.066 8.87102 10.987C8.49802 11.274 8.15502 11.601 7.84702 11.962C6.65702 11.861 5.56502 11.592 4.77002 11.174C4.01202 10.776 3.60102 10.292 3.51602 9.745ZM3.50002 5.99C3.50002 5.294 4.01802 4.676 5.07802 4.206C6.12102 3.744 7.54602 3.5 9.00002 3.5C10.454 3.5 11.88 3.744 12.923 4.206C13.983 4.676 14.5 5.294 14.5 5.99C14.5 6.697 13.981 7.315 12.924 7.781C11.882 8.241 10.456 8.48 9.00102 8.48C7.54602 8.48 6.12002 8.241 5.07802 7.781C4.02002 7.315 3.50202 6.696 3.50202 5.99H3.50002ZM20.5 17.933V18.01C20.5 18.706 19.982 19.324 18.923 19.794C17.88 20.256 16.455 20.5 15 20.5C13.545 20.5 12.12 20.256 11.078 19.794C10.018 19.324 9.50102 18.706 9.50102 18.01V17.933C11.169 18.877 13.074 19.34 15.001 19.261C16.929 19.34 18.832 18.878 20.5 17.933ZM9.50002 14.27C9.50002 13.737 9.94802 13.119 10.982 12.603C11.986 12.103 13.406 11.779 15 11.779C16.594 11.779 18.015 12.103 19.018 12.603C20.052 13.118 20.5 13.737 20.5 14.27C20.5 14.803 20.052 15.421 19.018 15.937C18.015 16.437 16.594 16.76 15 16.76C13.406 16.76 11.985 16.436 10.982 15.937C9.94802 15.422 9.50002 14.803 9.50002 14.27Z"/></svg>

<svg xmlns="http://www.w3.org/2000/svg" width="24" height="24" fill="none"><path fill="currentColor" d="M7.483 18.01h-.482v-.33h.5zm0 0-.009.169a9 9 0 0 1-.472-.037zm.018-.33-.018.33H7.5zm0 0A8.66 8.66 0 0 1 3.5 16.455l4.318 2.99A3.3 3.3 0 0 1 7.5 18.01zm-.499.462a9.2 9.2 0 0 1-3.503-1.109c.01.628.431 1.182 1.291 1.629.658.342 1.513.584 2.456.717a3.8 3.8 0 0 1-.244-1.237M3.5 13.296A9 9 0 0 0 7 14.402v1.203c-.945-.157-1.783-.424-2.404-.79-.728-.428-1.085-.94-1.096-1.519m.016-3.551a10.3 10.3 0 0 0 5.355 1.242 6.8 6.8 0 0 0-1.024.975c-1.19-.101-2.282-.37-3.077-.788-.758-.398-1.169-.882-1.254-1.429M3.5 5.99c0-.696.518-1.314 1.578-1.784C6.121 3.744 7.546 3.5 9 3.5s2.88.244 3.923.706c1.06.47 1.577 1.088 1.577 1.784 0 .707-.519 1.325-1.576 1.791-1.042.46-2.468.699-3.923.699s-2.881-.239-3.923-.699C4.02 7.315 3.502 6.696 3.502 5.99zm17 11.943v.077c0 .696-.518 1.314-1.577 1.784-1.043.462-2.468.706-3.923.706s-2.88-.244-3.922-.706c-1.06-.47-1.577-1.088-1.577-1.784v-.077a10.3 10.3 0 0 0 5.5 1.328 10.3 10.3 0 0 0 5.499-1.328m-11-3.663c0-.533.448-1.151 1.482-1.667 1.004-.5 2.424-.824 4.018-.824s3.015.324 4.018.824c1.034.515 1.482 1.134 1.482 1.667s-.448 1.151-1.482 1.667c-1.003.5-2.424.823-4.018.823s-3.015-.324-4.018-.823C9.948 15.422 9.5 14.803 9.5 14.27"/><path stroke="#000" d="M7.483 18.01h-.482v-.33h.5m-.018.33H7.5m-.017 0-.009.169a9 9 0 0 1-.472-.037m.481-.132-.481.132m.481-.132.018-.33m0 0-.001.33m.001-.33A8.66 8.66 0 0 1 3.5 16.455l4.318 2.99A3.3 3.3 0 0 1 7.5 18.01m-.498.132a9.2 9.2 0 0 1-3.503-1.109c.01.628.431 1.182 1.291 1.629.658.342 1.513.584 2.456.717a3.8 3.8 0 0 1-.244-1.237ZM3.5 13.296A9 9 0 0 0 7 14.402v1.203c-.945-.157-1.783-.424-2.404-.79-.728-.428-1.085-.94-1.096-1.519Zm.016-3.551a10.3 10.3 0 0 0 5.355 1.242 6.8 6.8 0 0 0-1.024.975c-1.19-.101-2.282-.37-3.077-.788-.758-.398-1.169-.882-1.254-1.429ZM3.5 5.99c0-.696.518-1.314 1.578-1.784C6.121 3.744 7.546 3.5 9 3.5s2.88.244 3.923.706c1.06.47 1.577 1.088 1.577 1.784 0 .707-.519 1.325-1.576 1.791-1.042.46-2.468.699-3.923.699s-2.881-.239-3.923-.699C4.02 7.315 3.502 6.696 3.502 5.99zm17 11.943v.077c0 .696-.518 1.314-1.577 1.784-1.043.462-2.468.706-3.923.706s-2.88-.244-3.922-.706c-1.06-.47-1.577-1.088-1.577-1.784v-.077a10.3 10.3 0 0 0 5.5 1.328 10.3 10.3 0 0 0 5.499-1.328Zm-11-3.663c0-.533.448-1.151 1.482-1.667 1.004-.5 2.424-.824 4.018-.824s3.015.324 4.018.824c1.034.515 1.482 1.134 1.482 1.667s-.448 1.151-1.482 1.667c-1.003.5-2.424.823-4.018.823s-3.015-.324-4.018-.823C9.948 15.422 9.5 14.803 9.5 14.27Z"/></svg>
